X: 100280
M: 2/4
L: 1/16
K: G
(ud/e/d/c/) !segno!|\
|: ud2 |\
~g2(bg) gfed | e2(ge) edcB | e2e2 d2B2 | c2A2A2d2 |
~g2(bg) gfed | e2(ge) edcB | A3G ABcd | B2G2G2 :|
d2 |\
gbag fagf | egfe dcBd | efgf edcB | c2A2 dcBA |


